X: 21402
T: The Maid of Forfar
%R: air, reel
B: James Oswald "The Caledonian Pocket Companion" v.2 p.140 #2
Z: 2018 John Chambers <jc:trillian.mit.edu>
M: C
L: 1/16
K: G
"_Slow" B3c |\
d4 (BA)G2 G4 (AB)d2 | e3f g8 Tf3e | (d2B2)(e2d2) g2e2Td2B2 | (B8 A4) B3c |
d6 e2 d2(Bd) TA2G2 | g3a b8 a3g | {g}f2(ed) B2(bg) f4 Te3d | d12 :: d3e |
{g}f4 Te3d a4 A3B | c2(de) d2c2 (c4 B2)g2 | Tf2e2 c'2(ba) g4 Tf3(e/f/) | e8 Hz4 g4 |
{e}d2(cB) TA2G2 A6 B2 | (cB)A2 (c'b)a2 (g4 f2)g2 | e2(de) (ge)(de) (dB3) (TA3G) | G12 :|


